icons/pn.svg

<?xml version="1.0" ?>
<svg xmlns="http://www.w3.org/2000/svg" xmlns:ev="http://www.w3.org/2001/xml-events" xmlns:xlink="http://www.w3.org/1999/xlink" baseProfile="full" height="339px" version="1.1" viewBox="-1025.9541262528376 1646.963087030389 12292.973813271872 6945.264879809886" width="600px">
	<defs/>
	<path d="M 3040.0,7987.0 C 2999.0,7974.0 2934.0,7945.0 2895.0,7922.0 C 2813.0,7872.0 2823.0,7875.0 2651.0,7860.0 L 2517.0,7849.0 L 2461.0,7801.0 C 2430.0,7774.0 2376.0,7738.0 2340.0,7720.0 C 2304.0,7702.0 2249.0,7669.0 2217.0,7646.0 L 2159.0,7605.0 L 2163.0,7545.0 C 2167.0,7487.0 2166.0,7484.0 2131.0,7450.0 C 2103.0,7423.0 2092.0,7402.0 2083.0,7357.0 C 2068.0,7283.0 2014.0,7209.0 1943.0,7163.0 C 1883.0,7125.0 1860.0,7084.0 1860.0,7014.0 L 1860.0,6970.0 L 1790.0,6935.0 C 1751.0,6915.0 1699.0,6884.0 1674.0,6865.0 C 1645.0,6843.0 1617.0,6830.0 1599.0,6830.0 C 1564.0,6830.0 1474.0,6795.0 1445.0,6770.0 C 1434.0,6760.0 1412.0,6748.0 1395.0,6743.0 C 1379.0,6738.0 1361.0,6725.0 1355.0,6714.0 C 1346.0,6697.0 1337.0,6696.0 1284.0,6701.0 C 1251.0,6704.0 1218.0,6710.0 1211.0,6714.0 C 1180.0,6734.0 1059.0,6739.0 989.0,6725.0 C 939.0,6714.0 907.0,6713.0 878.0,6719.0 C 825.0,6731.0 800.0,6721.0 768.0,6673.0 C 746.0,6640.0 734.0,6632.0 694.0,6624.0 C 648.0,6615.0 645.0,6613.0 638.0,6575.0 C 628.0,6530.0 621.0,6523.0 493.0,6438.0 C 431.0,6397.0 400.0,6369.0 395.0,6353.0 C 385.0,6310.0 347.0,6282.0 282.0,6270.0 C 242.0,6262.0 214.0,6250.0 199.0,6234.0 C 187.0,6221.0 167.0,6210.0 156.0,6210.0 C 116.0,6210.0 107.0,6196.0 127.0,6163.0 C 143.0,6134.0 143.0,6129.0 128.0,6078.0 C 115.0,6038.0 113.0,6004.0 117.0,5938.0 C 122.0,5860.0 121.0,5849.0 100.0,5818.0 C 88.0,5800.0 66.0,5775.0 51.0,5762.0 L 25.0,5739.0 L 73.0,5696.0 C 116.0,5657.0 120.0,5650.0 120.0,5607.0 C 120.0,5567.0 112.0,5549.0 66.0,5482.0 C 36.0,5438.0 9.0,5388.0 5.0,5370.0 C -1.0,5341.0 3.0,5333.0 40.0,5295.0 L 83.0,5251.0 L 131.0,5276.0 C 194.0,5308.0 280.0,5308.0 280.0,5276.0 C 280.0,5270.0 292.0,5232.0 307.0,5193.0 L 335.0,5120.0 L 388.0,5120.0 C 421.0,5120.0 455.0,5127.0 479.0,5139.0 C 515.0,5158.0 517.0,5162.0 529.0,5231.0 C 539.0,5292.0 547.0,5311.0 581.0,5351.0 C 620.0,5398.0 623.0,5399.0 647.0,5386.0 C 662.0,5379.0 685.0,5355.0 699.0,5334.0 C 723.0,5300.0 733.0,5293.0 785.0,5283.0 C 818.0,5276.0 913.0,5267.0 995.0,5264.0 C 1086.0,5261.0 1163.0,5252.0 1190.0,5243.0 C 1298.0,5207.0 1408.0,5180.0 1447.0,5180.0 C 1484.0,5180.0 1493.0,5175.0 1528.0,5134.0 C 1557.0,5099.0 1575.0,5065.0 1594.0,5000.0 L 1620.0,4913.0 L 1847.0,4777.0 L 2075.0,4641.0 L 2230.0,4638.0 L 2385.0,4634.0 L 2488.0,4565.0 C 2579.0,4504.0 2595.0,4489.0 2626.0,4435.0 C 2661.0,4370.0 2669.0,4318.0 2647.0,4289.0 C 2640.0,4280.0 2600.0,4257.0 2557.0,4237.0 L 2480.0,4201.0 L 2480.0,4133.0 C 2481.0,4064.0 2495.0,4010.0 2523.0,3966.0 C 2539.0,3942.0 2540.0,3942.0 2592.0,3956.0 C 2643.0,3969.0 2646.0,3969.0 2694.0,3942.0 C 2735.0,3918.0 2746.0,3906.0 2762.0,3862.0 L 2781.0,3810.0 L 2727.0,3749.0 C 2677.0,3693.0 2672.0,3682.0 2666.0,3628.0 C 2662.0,3595.0 2660.0,3567.0 2662.0,3565.0 C 2664.0,3563.0 2745.0,3532.0 2842.0,3496.0 C 2984.0,3443.0 3031.0,3430.0 3076.0,3430.0 C 3116.0,3430.0 3143.0,3424.0 3166.0,3409.0 L 3200.0,3388.0 L 3241.0,3420.0 C 3266.0,3441.0 3294.0,3478.0 3316.0,3521.0 C 3335.0,3559.0 3353.0,3590.0 3356.0,3590.0 C 3359.0,3590.0 3388.0,3584.0 3419.0,3576.0 C 3450.0,3568.0 3487.0,3559.0 3501.0,3556.0 C 3523.0,3551.0 3530.0,3541.0 3545.0,3484.0 C 3562.0,3422.0 3562.0,3416.0 3546.0,3384.0 C 3524.0,3337.0 3526.0,3324.0 3563.0,3257.0 C 3593.0,3202.0 3600.0,3196.0 3670.0,3165.0 C 3743.0,3132.0 3751.0,3131.0 3950.0,3120.0 C 4152.0,3108.0 4157.0,3108.0 4291.0,3063.0 C 4365.0,3039.0 4431.0,3015.0 4436.0,3012.0 C 4441.0,3008.0 4460.0,2974.0 4477.0,2935.0 L 4509.0,2865.0 L 4631.0,2790.0 L 4753.0,2715.0 L 4746.0,2623.0 C 4740.0,2531.0 4740.0,2529.0 4775.0,2461.0 C 4794.0,2423.0 4818.0,2389.0 4828.0,2386.0 C 4839.0,2382.0 4855.0,2361.0 4865.0,2339.0 C 4882.0,2303.0 4937.0,2260.0 4967.0,2260.0 C 4972.0,2260.0 4984.0,2298.0 4994.0,2345.0 L 5013.0,2430.0 L 5077.0,2450.0 C 5113.0,2461.0 5143.0,2470.0 5144.0,2470.0 C 5145.0,2470.0 5171.0,2452.0 5201.0,2430.0 L 5255.0,2389.0 L 5400.0,2396.0 C 5575.0,2403.0 5652.0,2423.0 5768.0,2491.0 L 5851.0,2539.0 L 5958.0,2525.0 C 6049.0,2513.0 6067.0,2508.0 6080.0,2489.0 C 6088.0,2476.0 6131.0,2419.0 6175.0,2361.0 C 6260.0,2249.0 6263.0,2247.0 6367.0,2236.0 L 6425.0,2230.0 L 6483.0,2282.0 L 6541.0,2335.0 L 6515.0,2410.0 C 6489.0,2486.0 6489.0,2510.0 6513.0,2510.0 C 6520.0,2510.0 6565.0,2494.0 6613.0,2475.0 C 6673.0,2451.0 6716.0,2440.0 6752.0,2440.0 C 6781.0,2440.0 6847.0,2429.0 6899.0,2415.0 L 6993.0,2391.0 L 7035.0,2438.0 C 7076.0,2484.0 7081.0,2486.0 7191.0,2512.0 C 7254.0,2527.0 7342.0,2541.0 7388.0,2544.0 C 7470.0,2549.0 7471.0,2550.0 7538.0,2604.0 C 7599.0,2654.0 7607.0,2658.0 7625.0,2645.0 C 7642.0,2634.0 7651.0,2635.0 7693.0,2659.0 C 7731.0,2680.0 7740.0,2689.0 7735.0,2705.0 C 7732.0,2716.0 7727.0,2743.0 7724.0,2765.0 C 7719.0,2801.0 7722.0,2809.0 7760.0,2847.0 C 7782.0,2870.0 7825.0,2903.0 7856.0,2920.0 C 7886.0,2938.0 7915.0,2962.0 7919.0,2974.0 C 7923.0,2985.0 7937.0,3045.0 7949.0,3105.0 L 7972.0,3215.0 L 8047.0,3270.0 C 8088.0,3300.0 8124.0,3328.0 8126.0,3332.0 C 8129.0,3337.0 8120.0,3355.0 8106.0,3373.0 C 8063.0,3429.0 8062.0,3475.0 8103.0,3556.0 C 8125.0,3600.0 8154.0,3638.0 8182.0,3661.0 L 8226.0,3698.0 L 8401.0,3705.0 C 8538.0,3711.0 8584.0,3716.0 8619.0,3731.0 C 8643.0,3741.0 8668.0,3750.0 8674.0,3750.0 C 8703.0,3749.0 8936.0,3657.0 9001.0,3620.0 L 9075.0,3578.0 L 9150.0,3598.0 C 9225.0,3618.0 9225.0,3618.0 9270.0,3599.0 C 9310.0,3581.0 9321.0,3580.0 9381.0,3591.0 L 9446.0,3603.0 L 9545.0,3541.0 C 9621.0,3492.0 9654.0,3477.0 9694.0,3473.0 C 9722.0,3470.0 9759.0,3459.0 9776.0,3449.0 C 9802.0,3433.0 9828.0,3430.0 9917.0,3430.0 C 9978.0,3430.0 10048.0,3433.0 10073.0,3436.0 C 10118.0,3442.0 10121.0,3445.0 10145.0,3497.0 C 10169.0,3551.0 10244.0,3789.0 10238.0,3795.0 C 10236.0,3796.0 10202.0,3825.0 10163.0,3859.0 L 10090.0,3921.0 L 10090.0,4022.0 L 10090.0,4123.0 L 10039.0,4175.0 C 10001.0,4214.0 9975.0,4231.0 9944.0,4239.0 C 9920.0,4245.0 9900.0,4254.0 9900.0,4258.0 C 9900.0,4262.0 9870.0,4288.0 9834.0,4315.0 C 9750.0,4378.0 9630.0,4506.0 9630.0,4532.0 C 9630.0,4542.0 9608.0,4575.0 9581.0,4603.0 C 9524.0,4665.0 9450.0,4788.0 9450.0,4823.0 C 9450.0,4847.0 9447.0,4848.0 9362.0,4853.0 C 9212.0,4863.0 9164.0,4875.0 9135.0,4907.0 C 9108.0,4937.0 9108.0,4935.0 9126.0,5064.0 L 9132.0,5107.0 L 9044.0,5165.0 C 8995.0,5197.0 8933.0,5232.0 8907.0,5243.0 C 8864.0,5261.0 8852.0,5262.0 8797.0,5252.0 C 8763.0,5246.0 8724.0,5232.0 8710.0,5222.0 C 8696.0,5212.0 8648.0,5198.0 8598.0,5190.0 L 8512.0,5177.0 L 8421.0,5235.0 C 8371.0,5266.0 8272.0,5316.0 8202.0,5346.0 C 8100.0,5389.0 8067.0,5408.0 8035.0,5443.0 C 8013.0,5466.0 7980.0,5492.0 7962.0,5499.0 C 7930.0,5512.0 7928.0,5512.0 7896.0,5481.0 C 7861.0,5447.0 7849.0,5444.0 7802.0,5461.0 C 7761.0,5475.0 7751.0,5512.0 7741.0,5674.0 C 7728.0,5869.0 7724.0,5875.0 7398.0,6198.0 C 7250.0,6345.0 7112.0,6475.0 7092.0,6487.0 C 7072.0,6500.0 7033.0,6517.0 7005.0,6525.0 C 6967.0,6536.0 6949.0,6548.0 6930.0,6577.0 C 6916.0,6597.0 6899.0,6619.0 6893.0,6626.0 C 6874.0,6644.0 6648.0,6716.0 6550.0,6735.0 C 6486.0,6747.0 6445.0,6763.0 6385.0,6797.0 C 6321.0,6834.0 6294.0,6844.0 6250.0,6846.0 C 6157.0,6850.0 5978.0,6876.0 5915.0,6895.0 C 5882.0,6904.0 5817.0,6930.0 5770.0,6951.0 C 5723.0,6973.0 5679.0,6990.0 5673.0,6990.0 C 5667.0,6990.0 5640.0,7000.0 5613.0,7011.0 C 5549.0,7040.0 5458.0,7059.0 5388.0,7060.0 C 5315.0,7060.0 5300.0,7067.0 5300.0,7098.0 C 5300.0,7135.0 5245.0,7216.0 5209.0,7230.0 C 5193.0,7237.0 5174.0,7250.0 5167.0,7259.0 C 5147.0,7287.0 5037.0,7350.0 5008.0,7350.0 C 4990.0,7350.0 4962.0,7367.0 4923.0,7401.0 C 4863.0,7454.0 4791.0,7492.0 4727.0,7504.0 C 4707.0,7508.0 4685.0,7519.0 4678.0,7528.0 C 4639.0,7580.0 4463.0,7680.0 4409.0,7680.0 C 4382.0,7680.0 4345.0,7721.0 4317.0,7784.0 C 4288.0,7847.0 4266.0,7870.0 4235.0,7870.0 C 4212.0,7870.0 4185.0,7882.0 4140.0,7912.0 C 4123.0,7924.0 4088.0,7931.0 4035.0,7933.0 C 3978.0,7936.0 3936.0,7945.0 3891.0,7964.0 C 3825.0,7991.0 3776.0,7997.0 3765.0,7980.0 C 3762.0,7975.0 3727.0,7961.0 3688.0,7949.0 L 3617.0,7928.0 L 3590.0,7948.0 C 3567.0,7965.0 3553.0,7967.0 3499.0,7963.0 C 3464.0,7959.0 3405.0,7944.0 3368.0,7929.0 L 3300.0,7901.0 L 3258.0,7956.0 C 3216.0,8009.0 3214.0,8010.0 3165.0,8009.0 C 3138.0,8009.0 3081.0,7999.0 3040.0,7987.0" fill="pink"/>
</svg>

<?xml version="1.0" standalone="no"?>
<!DOCTYPE svg PUBLIC "-//W3C//DTD SVG 20010904//EN"
 "http://www.w3.org/TR/2001/REC-SVG-20010904/DTD/svg10.dtd">
<svg version="1.0" xmlns="http://www.w3.org/2000/svg"
 width="1024.000000pt" height="1024.000000pt" viewBox="0 0 1024.000000 1024.000000"
 preserveAspectRatio="xMidYMid meet">
<metadata>
Created by potrace 1.10, written by Peter Selinger 2001-2011
</metadata>
<g transform="translate(0.000000,1024.000000) scale(0.100000,-0.100000)"
fill="#000000" stroke="none">
<path d="M3040 7987 c-41 -13 -106 -42 -145 -65 -82 -50 -72 -47 -244 -62
l-134 -11 -56 -48 c-31 -27 -85 -63 -121 -81 -36 -18 -91 -51 -123 -74 l-58
-41 4 -60 c4 -58 3 -61 -32 -95 -28 -27 -39 -48 -48 -93 -15 -74 -69 -148
-140 -194 -60 -38 -83 -79 -83 -149 l0 -44 -70 -35 c-39 -20 -91 -51 -116 -70
-29 -22 -57 -35 -75 -35 -35 0 -125 -35 -154 -60 -11 -10 -33 -22 -50 -27 -16
-5 -34 -18 -40 -29 -9 -17 -18 -18 -71 -13 -33 3 -66 9 -73 13 -31 20 -152 25
-222 11 -50 -11 -82 -12 -111 -6 -53 12 -78 2 -110 -46 -22 -33 -34 -41 -74
-49 -46 -9 -49 -11 -56 -49 -10 -45 -17 -52 -145 -137 -62 -41 -93 -69 -98
-85 -10 -43 -48 -71 -113 -83 -40 -8 -68 -20 -83 -36 -12 -13 -32 -24 -43 -24
-40 0 -49 -14 -29 -47 16 -29 16 -34 1 -85 -13 -40 -15 -74 -11 -140 5 -78 4
-89 -17 -120 -12 -18 -34 -43 -49 -56 l-26 -23 48 -43 c43 -39 47 -46 47 -89
0 -40 -8 -58 -54 -125 -30 -44 -57 -94 -61 -112 -6 -29 -2 -37 35 -75 l43 -44
48 25 c63 32 149 32 149 0 0 -6 12 -44 27 -83 l28 -73 53 0 c33 0 67 7 91 19
36 19 38 23 50 92 10 61 18 80 52 120 39 47 42 48 66 35 15 -7 38 -31 52 -52
24 -34 34 -41 86 -51 33 -7 128 -16 210 -19 91 -3 168 -12 195 -21 108 -36
218 -63 257 -63 37 0 46 -5 81 -46 29 -35 47 -69 66 -134 l26 -87 227 -136
228 -136 155 -3 155 -4 103 -69 c91 -61 107 -76 138 -130 35 -65 43 -117 21
-146 -7 -9 -47 -32 -90 -52 l-77 -36 0 -68 c1 -69 15 -123 43 -167 16 -24 17
-24 69 -10 51 13 54 13 102 -14 41 -24 52 -36 68 -80 l19 -52 -54 -61 c-50
-56 -55 -67 -61 -121 -4 -33 -6 -61 -4 -63 2 -2 83 -33 180 -69 142 -53 189
-66 234 -66 40 0 67 -6 90 -21 l34 -21 41 32 c25 21 53 58 75 101 19 38 37 69
40 69 3 0 32 -6 63 -14 31 -8 68 -17 82 -20 22 -5 29 -15 44 -72 17 -62 17
-68 1 -100 -22 -47 -20 -60 17 -127 30 -55 37 -61 107 -92 73 -33 81 -34 280
-45 202 -12 207 -12 341 -57 74 -24 140 -48 145 -51 5 -4 24 -38 41 -77 l32
-70 122 -75 122 -75 -7 -92 c-6 -92 -6 -94 29 -162 19 -38 43 -72 53 -75 11
-4 27 -25 37 -47 17 -36 72 -79 102 -79 5 0 17 38 27 85 l19 85 64 20 c36 11
66 20 67 20 1 0 27 -18 57 -40 l54 -41 145 7 c175 7 252 27 368 95 l83 48 107
-14 c91 -12 109 -17 122 -36 8 -13 51 -70 95 -128 85 -112 88 -114 192 -125
l58 -6 58 52 58 53 -26 75 c-26 76 -26 100 -2 100 7 0 52 -16 100 -35 60 -24
103 -35 139 -35 29 0 95 -11 147 -25 l94 -24 42 47 c41 46 46 48 156 74 63 15
151 29 197 32 82 5 83 6 150 60 61 50 69 54 87 41 17 -11 26 -10 68 14 38 21
47 30 42 46 -3 11 -8 38 -11 60 -5 36 -2 44 36 82 22 23 65 56 96 73 30 18 59
42 63 54 4 11 18 71 30 131 l23 110 75 55 c41 30 77 58 79 62 3 5 -6 23 -20
41 -43 56 -44 102 -3 183 22 44 51 82 79 105 l44 37 175 7 c137 6 183 11 218
26 24 10 49 19 55 19 29 -1 262 -93 327 -130 l74 -42 75 20 c75 20 75 20 120
1 40 -18 51 -19 111 -8 l65 12 99 -62 c76 -49 109 -64 149 -68 28 -3 65 -14
82 -24 26 -16 52 -19 141 -19 61 0 131 3 156 6 45 6 48 9 72 61 24 54 99 292
93 298 -2 1 -36 30 -75 64 l-73 62 0 101 0 101 -51 52 c-38 39 -64 56 -95 64
-24 6 -44 15 -44 19 0 4 -30 30 -66 57 -84 63 -204 191 -204 217 0 10 -22 43
-49 71 -57 62 -131 185 -131 220 0 24 -3 25 -88 30 -150 10 -198 22 -227 54
-27 30 -27 28 -9 157 l6 43 -88 58 c-49 32 -111 67 -137 78 -43 18 -55 19
-110 9 -34 -6 -73 -20 -87 -30 -14 -10 -62 -24 -112 -32 l-86 -13 -91 58 c-50
31 -149 81 -219 111 -102 43 -135 62 -167 97 -22 23 -55 49 -73 56 -32 13 -34
13 -66 -18 -35 -34 -47 -37 -94 -20 -41 14 -51 51 -61 213 -13 195 -17 201
-343 524 -148 147 -286 277 -306 289 -20 13 -59 30 -87 38 -38 11 -56 23 -75
52 -14 20 -31 42 -37 49 -19 18 -245 90 -343 109 -64 12 -105 28 -165 62 -64
37 -91 47 -135 49 -93 4 -272 30 -335 49 -33 9 -98 35 -145 56 -47 22 -91 39
-97 39 -6 0 -33 10 -60 21 -64 29 -155 48 -225 49 -73 0 -88 7 -88 38 0 37
-55 118 -91 132 -16 7 -35 20 -42 29 -20 28 -130 91 -159 91 -18 0 -46 17 -85
51 -60 53 -132 91 -196 103 -20 4 -42 15 -49 24 -39 52 -215 152 -269 152 -27
0 -64 41 -92 104 -29 63 -51 86 -82 86 -23 0 -50 12 -95 42 -17 12 -52 19
-105 21 -57 3 -99 12 -144 31 -66 27 -115 33 -126 16 -3 -5 -38 -19 -77 -31
l-71 -21 -27 20 c-23 17 -37 19 -91 15 -35 -4 -94 -19 -131 -34 l-68 -28 -42
55 c-42 53 -44 54 -93 53 -27 0 -84 -10 -125 -22z"/>
</g>
</svg>
